!!!COM: Bach, Johann Sebastian
!!!OPR: Joh. Seb. Bachs vierstimmige Choralgesänge
!!!XEN: Four-part Chorales
!!!OTL: 37. Das walt' Gott Vater und Gott Sohn
!!!SCT: BWV 290
!!!SCA: Thematisch-systematisches Verzeichnis der musikalischen Werke Johann Sebastian Bach: Bach-Werke-Verzeichnis (Schmieder)
!!!YOR: Bach Gesellschaft Edition xxxix
!!!ENC: Steven Rasmussen
!!!CDT: 1685/3//-1750/7/28/
!!!OCY: Deutschland
!!!YEC: Copyright (c) 1994, 2000 Center for Computer Assisted Research in the Humanities
!!!YEM: Rights to all derivative editions reserved
!!!YEN: United States of America
**kern	**silbe	**kern	**kern	**kern
*I:[SOPRANO]	*I:[SOPRANO]	*I:[ALTO]	*I:[TENORE]	*I:[BASSO]
*clefG2	*	*clefG2	*clefGv2	*clefF4
*k[b-]	*	*k[b-]	*k[b-]	*k[b-]
*F:	*	*F:	*F:	*F:
*M4/4	*	*M4/4	*M4/4	*M4/4
4f	Das	4c	4A	4F
=1	=1	=1	=1	=1
4a	walt'	4f	4c	4F
4cc	Gott	4f	4c	8AAL
.	.	.	.	8BB-J
4cc	Va-	4e	4G	4C
4a	-ter	4e	4A	4C#
=2	=2	=2	=2	=2
4f	und	8eL	4A	4D
.	.	8dJ	.	.
4g	Gott	4c	4G	4E
4a;	Sohn,	4c;	4F;	4F;
4f	Gott	4c	4A	4F
=3	=3	=3	=3	=3
4cc	heil'-	4f	4A	4.F
4cc	-ger	4g	4c	.
.	.	.	.	8E
4dd	Geist	8aL	4f	4D
.	.	8bnJ	.	.
4ee	in's	4cc	4e	8AL
.	.	.	.	8GJ
=4	=4	=4	=4	=4
8ffL	Him-	4.cc	4a	4F
8eeJ	.	.	.	.
4dd	-mels	.	8dL	4G
.	.	8bn	16gL	.
.	.	.	16fJJ	.
4cc;	Thron.	4g;	4e;	4C;
4cc	Man	4g	4c	4E
=5	=5	=5	=5	=5
4a	dankt	8gL	4c	4F
.	.	16fL	.	.
.	.	16eJJ	.	.
4cc	dir,	4f	4c	8AAL
.	.	.	.	8FFJ
4dd	eh'	4f	8cL	4BB-
.	.	.	8B-J	.
4cc	die	4f	8B-L	4F
.	.	.	8AJ	.
=6	=6	=6	=6	=6
4b-	Sonn'	8gL	4G	8FL
.	.	8cJ	.	8EJ
4a	auf-	8cL	8.AL	4F
.	.	8fJ	.	.
.	.	.	16B-Jk	.
4g;	-geht;	(8fL	4c;	4C;
.	.	8e;J)	.	.
4cc	wann	4g	4c	4E
=7	=7	=7	=7	=7
8aL	's\0+Licht	4f	4c	4F
8b-J	.	.	.	.
4cc	an-	4f	4c	4AA
4b-	-bricht,	4f	4d	4BB-
8aL	man	4e	8cL	4C
8gJ	.	.	8B-J	.
=8	=8	=8	=8	=8
4f	vor	(16dLL	8AL	4D
.	.	16eJJ	.	.
.	.	4f)	16GL	.
.	.	.	16FJJ	.
4g	dir	.	8.cL	4C
.	.	8e	.	.
.	.	.	16B-Jk	.
4f;	steht.	4c;	4A;	4F;
==|!	==|!	==|!	==|!	==|!
*-	*-	*-	*-	*-
!!!RWG: Key is interpreted using the Humdrum key tool.
!!!END: 1994/05/16
!!!EMD: Converted from MuseData to Humdrum Dec 19, 2000, by Andreas Kornstaedt using muse2kern.
!!!EED: Craig Stuart Sapp
!!!EEV: 2024/03/31
!!!ONB: Some non-unicode characters
